X:1
T:Title
%%score ( 1 2 ) { 3 | 4 }
L:1/8
Q:1/4=115
M:4/4
K:F
V:1 treble nm="Grand Piano, Unnamed-000"
V:2 treble 
V:3 treble nm="Choir Pad, St. Sylvester, 87.87"
V:4 bass 
V:1
 [FA]3 [FA] [FA]2 [FA]2 | [EG]2 [FA]2 [FB]2 [Ec]2 | [FA]8 | [FA]3 [FA] [FA]2 [FA]2 | %4
w: By~John~Bacchus~Dykes,~1862 * * *||||
 [FA]2 [FG]2 [EG]4- | [EG]8 | F3 [DF] [CF]2 F2 | [FA]2 [Fc]2 c2 B2 | [FA]8 | %9
w: |||||
 [FG]3 [FG] [FG]2 [FG]2 | [EA]2 [EG]2 F4- | F4 z4 |] %12
w: |||
V:2
 x8 | x8 | x8 | x8 | x8 | x8 | x8 | z4 F4 | x8 | x8 | x8 | x8 |] %12
V:3
 C3 C C2 A,2 | B,2[K:bass] A,2 G,4 | A,4 C4 | D3[K:treble] D D2 C2 | =B,2 B,2 C4 | G,4 B,4 | %6
 A,3 B, A,2 A,2 | C2 _E2 D4 | C4 A,4 | =B,3 B, B,2 B,2 | C2 B,2 A,4- | A,4 z4 |] %12
V:4
 F,3 F, F,2 F,2 | G,2 F,2 C,4 | F,8 | D,3 D, D,2 D,2 | G,2 G,2 C,4- | C,8 | F,3 F, F,2 F,2 | %7
 F,2 F,2 B,,4 | F,8 | G,3 G, G,2 D,2 | C,2 C,2 F,4- | F,4 z4 |] %12

